Icons/rename_me_google_play_movies.svg

<svg viewBox="0 0 48 48"><defs><linearGradient id="linearGradient3764" x1="1" x2="47" gradientUnits="userSpaceOnUse" gradientTransform="translate(-48.000001,0.00221467)"><stop stop-color="#f76859" stop-opacity="1"/><stop offset="1" stop-color="#f87b6d" stop-opacity="1"/></linearGradient><clipPath id="clipPath-672008962"><g transform="translate(0,-1004.3622)"><rect rx="4" y="1005.36" x="1" height="46" width="46" fill="#1890d0"/></g></clipPath><clipPath id="clipPath-684695499"><g transform="translate(0,-1004.3622)"><rect rx="4" y="1005.36" x="1" height="46" width="46" fill="#1890d0"/></g></clipPath></defs><g><path d="m 1 43 l 0 0.25 c 0 2.216 1.784 4 4 4 l 38 0 c 2.216 0 4 -1.784 4 -4 l 0 -0.25 c 0 2.216 -1.784 4 -4 4 l -38 0 c -2.216 0 -4 -1.784 -4 -4 z m 0 0.5 l 0 0.5 c 0 2.216 1.784 4 4 4 l 38 0 c 2.216 0 4 -1.784 4 -4 l 0 -0.5 c 0 2.216 -1.784 4 -4 4 l -38 0 c -2.216 0 -4 -1.784 -4 -4 z" opacity="0.02"/><path d="m 1 43.25 l 0 0.25 c 0 2.216 1.784 4 4 4 l 38 0 c 2.216 0 4 -1.784 4 -4 l 0 -0.25 c 0 2.216 -1.784 4 -4 4 l -38 0 c -2.216 0 -4 -1.784 -4 -4 z" opacity="0.05"/><path d="m 1 43 l 0 0.25 c 0 2.216 1.784 4 4 4 l 38 0 c 2.216 0 4 -1.784 4 -4 l 0 -0.25 c 0 2.216 -1.784 4 -4 4 l -38 0 c -2.216 0 -4 -1.784 -4 -4 z" opacity="0.1"/></g><g><rect width="46" height="46" x="-47" y="1" rx="4" transform="matrix(0,-1,1,0,0,0)" fill="url(#linearGradient3764)" fill-opacity="1"/></g><g><g clip-path="url(#clipPath-672008962)"><g opacity="0.1"><!-- color: #f87b6d --><g><path d="m 12 13 c -0.555 0 -1 0.445 -1 1 l 0 20 c 0 0.555 0.445 1 1 1 l 24 0 c 0.555 0 1 -0.445 1 -1 l 0 -20 c 0 -0.555 -0.445 -1 -1 -1 m -22 3 l 4 0 l 0 4 l -4 0 m 16 -4 l 4 0 l 0 4 l -4 0 m -16 2 l 4 0 l 0 4 l -4 0 m 16 -4 l 4 0 l 0 4 l -4 0 m -16 2 l 4 0 l 0 4 l -4 0 m 16 -4 l 4 0 l 0 4 l -4 0 m 0 -4" fill="#000"/></g></g></g></g><g><g clip-path="url(#clipPath-684695499)"><g transform="translate(0,-1)"><!-- color: #f87b6d --><g><path d="m 12 13 c -0.555 0 -1 0.445 -1 1 l 0 20 c 0 0.555 0.445 1 1 1 l 24 0 c 0.555 0 1 -0.445 1 -1 l 0 -20 c 0 -0.555 -0.445 -1 -1 -1 m -22 3 l 4 0 l 0 4 l -4 0 m 16 -4 l 4 0 l 0 4 l -4 0 m -16 2 l 4 0 l 0 4 l -4 0 m 16 -4 l 4 0 l 0 4 l -4 0 m -16 2 l 4 0 l 0 4 l -4 0 m 16 -4 l 4 0 l 0 4 l -4 0 m 0 -4" fill="#f9f9f9"/></g></g></g></g><g><g transform="translate(0,-1004.3622)"><path d="m 1 1043.36 0 4 c 0 2.216 1.784 4 4 4 l 38 0 c 2.216 0 4 -1.784 4 -4 l 0 -4 c 0 2.216 -1.784 4 -4 4 l -38 0 c -2.216 0 -4 -1.784 -4 -4 z" opacity="0.1"/></g></g></svg>

<svg viewBox="0 0 48 48" xmlns:xlink="http://www.w3.org/1999/xlink">
 <defs>
  <linearGradient id="0">
   <stop stop-opacity="0"/>
   <stop offset="1"/>
  </linearGradient>
  <linearGradient xlink:href="#0" id="1" gradientUnits="userSpaceOnUse" gradientTransform="translate(4e-7,-48)" y1="47" x2="0" y2="1"/>
  <clipPath id="2">
   <g transform="translate(0,-1004.3622)">
    <rect rx="4" y="1005.36" x="1" height="46" width="46" fill="#1890d0"/>
   </g>
  </clipPath>
  <clipPath id="3">
   <g transform="translate(0,-1004.3622)">
    <rect rx="4" y="1005.36" x="1" height="46" width="46" fill="#1890d0"/>
   </g>
  </clipPath>
 </defs>
 <g>
  <g transform="translate(0,-1004.3622)">
   <path d="m 5,1006.3622 c -2.216,0 -4,1.784 -4,4 l 0,37.25 c 0,2.216 1.784,4 4,4 l 38,0 c 2.216,0 4,-1.784 4,-4 l 0,-37.25 c 0,-2.216 -1.784,-4 -4,-4 l -38,0 z m -4,41.5 0,0.5 c 0,2.216 1.784,4 4,4 l 38,0 c 2.216,0 4,-1.784 4,-4 l 0,-0.5 c 0,2.216 -1.784,4 -4,4 l -38,0 c -2.216,0 -4,-1.784 -4,-4 z" opacity="0.02"/>
   <path d="m 1,1047.6122 0,0.25 c 0,2.216 1.784,4 4,4 l 38,0 c 2.216,0 4,-1.784 4,-4 l 0,-0.25 c 0,2.216 -1.784,4 -4,4 l -38,0 c -2.216,0 -4,-1.784 -4,-4 z" opacity="0.05"/>
   <rect width="46" height="46" x="1" y="1005.61" rx="4" opacity="0.1"/>
  </g>
 </g>
 <g>
  <g transform="translate(0,-1004.3622)">
   <rect rx="4" y="1005.36" x="1" height="46" width="46" fill="#f87b6d"/>
  </g>
 </g>
 <g>
  <rect transform="scale(1,-1)" width="46" height="46" x="1" y="-46.998" rx="4" opacity="0.1" fill="url(#1)"/>
 </g>
 <g>
  <g clip-path="url(#2)">
   <g opacity="0.1">
    <g>
     <path d="M 12 13 C 11.445312 13 11 13.445312 11 14 L 11 34 C 11 34.554688 11.445312 35 12 35 L 36 35 C 36.554688 35 37 34.554688 37 34 L 37 14 C 37 13.445312 36.554688 13 36 13 Z M 14 16 L 18 16 L 18 20 L 14 20 Z M 30 16 L 34 16 L 34 20 L 30 20 Z M 14 22 L 18 22 L 18 26 L 14 26 Z M 30 22 L 34 22 L 34 26 L 30 26 Z M 14 28 L 18 28 L 18 32 L 14 32 Z M 30 28 L 34 28 L 34 32 L 30 32 Z M 30 28 "/>
    </g>
   </g>
  </g>
 </g>
 <g>
  <g clip-path="url(#3)">
   <g transform="translate(0,-1)">
    <g>
     <path d="M 12 13 C 11.445312 13 11 13.445312 11 14 L 11 34 C 11 34.554688 11.445312 35 12 35 L 36 35 C 36.554688 35 37 34.554688 37 34 L 37 14 C 37 13.445312 36.554688 13 36 13 Z M 14 16 L 18 16 L 18 20 L 14 20 Z M 30 16 L 34 16 L 34 20 L 30 20 Z M 14 22 L 18 22 L 18 26 L 14 26 Z M 30 22 L 34 22 L 34 26 L 30 26 Z M 14 28 L 18 28 L 18 32 L 14 32 Z M 30 28 L 34 28 L 34 32 L 30 32 Z M 30 28 " fill="#f9f9f9"/>
    </g>
   </g>
  </g>
 </g>
 <g>
  <g transform="translate(0,-1004.3622)">
   <path d="m 1,1043.3622 0,4 c 0,2.216 1.784,4 4,4 l 38,0 c 2.216,0 4,-1.784 4,-4 l 0,-4 c 0,2.216 -1.784,4 -4,4 l -38,0 c -2.216,0 -4,-1.784 -4,-4 z" opacity="0.1"/>
  </g>
 </g>
</svg>
